src/root_files/_common/binary-to-deriv/image/moving-banner.svg

<svg width="564" height="52" viewBox="0 0 564 52" fill="none" xmlns="http://www.w3.org/2000/svg">
<path d="M425.397 45.2838H37.3173C36.817 45.2838 36.3168 45.4873 35.9166 45.7926L29.4136 51.4912C29.0134 51.7965 28.5132 52 28.013 52H18.5086C18.0083 52 17.5081 51.7965 17.1079 51.4912L10.6049 45.7926C10.2047 45.4873 9.70449 45.2838 9.20426 45.2838H4.50208C2.00093 45.2838 0 43.2485 0 40.7045V4.57926C0 2.03523 2.00093 0 4.50208 0H9.20426C9.70449 0 10.2047 0.203522 10.6049 0.508806L17.1079 6.20744C17.5081 6.51272 18.0083 6.71624 18.5086 6.71624H28.013C28.5132 6.71624 29.0134 6.51272 29.4136 6.20744L35.9166 0.508806C36.3168 0.203522 36.817 0 37.3173 0H432V8.34442C432 8.85323 431.8 9.36204 431.5 9.76908L425.897 16.3836C425.597 16.7906 425.397 17.2994 425.397 17.8082V27.4755C425.397 27.9843 425.597 28.4932 425.897 28.9002L431.5 35.5147C431.8 35.9217 432 36.4305 432 36.9393V45.0802L425.397 45.2838Z" fill="white"/>
<mask id="mask0_836_21" style="mask-type:alpha" maskUnits="userSpaceOnUse" x="0" y="0" width="432" height="52">
<path d="M425.397 45.2838H37.3173C36.817 45.2838 36.3168 45.4873 35.9166 45.7926L29.4136 51.4912C29.0134 51.7965 28.5132 52 28.013 52H18.5086C18.0083 52 17.5081 51.7965 17.1079 51.4912L10.6049 45.7926C10.2047 45.4873 9.70449 45.2838 9.20426 45.2838H4.50208C2.00093 45.2838 0 43.2485 0 40.7045V4.57926C0 2.03523 2.00093 0 4.50208 0H9.20426C9.70449 0 10.2047 0.203522 10.6049 0.508806L17.1079 6.20744C17.5081 6.51272 18.0083 6.71624 18.5086 6.71624H28.013C28.5132 6.71624 29.0134 6.51272 29.4136 6.20744L35.9166 0.508806C36.3168 0.203522 36.817 0 37.3173 0H432V8.34442C432 8.85323 431.8 9.36204 431.5 9.76908L425.897 16.3836C425.597 16.7906 425.397 17.2994 425.397 17.8082V27.4755C425.397 27.9843 425.597 28.4932 425.897 28.9002L431.5 35.5147C431.8 35.9217 432 36.4305 432 36.9393V45.0802L425.397 45.2838Z" fill="white"/>
</mask>
<g mask="url(#mask0_836_21)">
<path d="M-26 0H69.16L97.76 52H-26V0Z" fill="#E6E9E9"/>
<g opacity="0.32">
<path d="M12.9297 1.2946C12.5598 0.924729 12.0885 0.672854 11.5755 0.570822C11.0625 0.46879 10.5307 0.521183 10.0474 0.721377C9.56414 0.921571 9.15108 1.26057 8.86047 1.69552C8.56986 2.13047 8.41475 2.64182 8.41475 3.16492C8.41475 3.68802 8.56986 4.19937 8.86047 4.63432C9.15108 5.06926 9.56414 5.40827 10.0474 5.60846C10.5307 5.80865 11.0625 5.86105 11.5755 5.75902C12.0885 5.65698 12.5598 5.40511 12.9297 5.03524C13.1753 4.78963 13.3702 4.49805 13.5031 4.17714C13.6361 3.85623 13.7045 3.51227 13.7045 3.16492C13.7045 2.81756 13.6361 2.47361 13.5031 2.1527C13.3702 1.83179 13.1753 1.5402 12.9297 1.2946ZM12.4914 4.10102L11.9955 4.59694L11.0594 3.66084L10.1233 4.59694L9.62742 4.10102L10.5635 3.16492L9.62742 2.22881L10.1233 1.7329L11.0594 2.669L11.9955 1.7329L12.4914 2.22881L11.5553 3.16492L12.4914 4.10102Z" fill="#333333"/>
<path d="M8.62804 5.59633C8.30878 5.27712 8.05566 4.89803 7.88319 4.4808C7.71072 4.06356 7.6223 3.61639 7.62299 3.16492H2.0669C1.64602 3.16492 1.24238 3.33211 0.944777 3.62972C0.647173 3.92733 0.47998 4.33097 0.47998 4.75186V12.1576C0.47998 12.5785 0.647173 12.9821 0.944777 13.2797C1.24238 13.5773 1.64602 13.7445 2.0669 13.7445H9.4725C9.89338 13.7445 10.297 13.5773 10.5946 13.2797C10.8922 12.9821 11.0594 12.5785 11.0594 12.1576V6.6014C10.608 6.60209 10.1608 6.51367 9.74356 6.3412C9.32633 6.16873 8.94725 5.9156 8.62804 5.59633ZM3.9183 4.63945C4.10139 4.63945 4.28036 4.69374 4.43259 4.79546C4.58482 4.89718 4.70347 5.04175 4.77353 5.21091C4.8436 5.38006 4.86193 5.56619 4.82621 5.74576C4.79049 5.92533 4.70233 6.09028 4.57287 6.21974C4.44341 6.3492 4.27846 6.43737 4.09889 6.47309C3.91933 6.50881 3.7332 6.49048 3.56405 6.42041C3.3949 6.35035 3.25032 6.23169 3.14861 6.07946C3.04689 5.92723 2.9926 5.74825 2.9926 5.56516C2.9926 5.31965 3.09013 5.08419 3.26373 4.91058C3.43733 4.73698 3.67279 4.63945 3.9183 4.63945ZM2.0669 7.97202C2.06677 7.82611 2.09542 7.6816 2.1512 7.54677C2.20698 7.41193 2.2888 7.28942 2.39198 7.18625C2.49515 7.08307 2.61766 7.00125 2.75249 6.94547C2.88732 6.88969 3.03183 6.86104 3.17774 6.86116H4.65886C4.95347 6.86116 5.23602 6.9782 5.44434 7.18653C5.65267 7.39485 5.7697 7.6774 5.7697 7.97202V8.34231H2.0669V7.97202ZM9.4725 11.9394H2.0669V11.2781H9.4725V11.9394ZM9.4725 10.3524H2.0669V9.6827H9.4725V10.3524Z" fill="#333333"/>
</g>
<g opacity="0.32">
<path d="M43.5593 17.8V10.12H19.4216C17.9053 10.12 16.4511 10.7269 15.379 11.8071C14.3068 12.8873 13.7045 14.3524 13.7045 15.88V42.76C13.7045 44.2877 14.3068 45.7527 15.379 46.833C16.4511 47.9132 17.9053 48.52 19.4216 48.52H46.1013C47.6176 48.52 49.0718 47.9132 50.1439 46.833C51.2161 45.7527 51.8184 44.2877 51.8184 42.76V21.64H47.3707C46.3601 21.6391 45.3912 21.2343 44.6766 20.5143C43.962 19.7944 43.5602 18.8182 43.5593 17.8ZM26.0915 15.4686C26.7511 15.4686 27.3959 15.6657 27.9443 16.0349C28.4928 16.4041 28.9202 16.9288 29.1726 17.5428C29.425 18.1567 29.4911 18.8323 29.3624 19.4841C29.2337 20.1359 28.9161 20.7346 28.4497 21.2045C27.9833 21.6744 27.3891 21.9944 26.7421 22.124C26.0952 22.2537 25.4247 22.1871 24.8153 21.9328C24.2059 21.6785 23.685 21.2479 23.3186 20.6953C22.9521 20.1428 22.7565 19.4931 22.7565 18.8286C22.7565 17.9375 23.1079 17.0828 23.7333 16.4527C24.3588 15.8226 25.207 15.4686 26.0915 15.4686ZM19.4216 27.568C19.4211 27.0384 19.5243 26.5139 19.7253 26.0245C19.9262 25.5351 20.221 25.0905 20.5927 24.716C20.9644 24.3415 21.4058 24.0445 21.8915 23.842C22.3773 23.6396 22.8979 23.5356 23.4235 23.536H28.7595C29.8209 23.536 30.8388 23.9608 31.5893 24.717C32.3398 25.4731 32.7615 26.4987 32.7615 27.568V28.9086H19.4216V27.568ZM46.1013 41.968H19.4216V39.568H46.1013V41.968ZM46.1013 36.208H19.4216V33.7772H46.1013V36.208Z" fill="#333333"/>
<path d="M45.465 17.5874C45.4668 18.1531 45.6908 18.695 46.0881 19.0946C46.4854 19.4943 47.0236 19.7191 47.5851 19.72H56.0518C56.6132 19.7191 57.1514 19.4943 57.5487 19.0946C57.9461 18.695 58.1701 18.1531 58.1719 17.5874V4.78516H45.465V17.5874ZM47.5851 6.91773H56.0518V17.5874H47.5851V6.91773Z" fill="#333333"/>
<path d="M55.5243 1.58631L54.466 0.52002H49.1709L48.1125 1.58631H44.4066V3.71888H59.2302V1.58631H55.5243Z" fill="#333333"/>
<path d="M51.1208 8.36802H49.1471V16.1372H51.1208V8.36802Z" fill="#333333"/>
<path d="M54.4898 8.36802H52.5161V16.1372H54.4898V8.36802Z" fill="#333333"/>
</g>
<g opacity="0.32">
<path d="M64.7213 37.9395C65.2827 37.9395 65.8316 37.7758 66.2984 37.4691C66.7653 37.1624 67.1291 36.7264 67.344 36.2164C67.5589 35.7063 67.6151 35.145 67.5055 34.6035C67.396 34.0621 67.1256 33.5647 66.7286 33.1743C66.3316 32.7839 65.8258 32.518 65.2751 32.4103C64.7244 32.3026 64.1536 32.3579 63.6349 32.5692C63.1162 32.7805 62.6728 33.1382 62.3609 33.5973C62.049 34.0563 61.8825 34.596 61.8825 35.1481C61.8831 35.8883 62.1824 36.5979 62.7146 37.1213C63.2469 37.6446 63.9686 37.9389 64.7213 37.9395ZM64.7213 33.6254C65.0279 33.6252 65.3277 33.7144 65.5827 33.8818C65.8377 34.0491 66.0365 34.2871 66.154 34.5656C66.2714 34.8441 66.3022 35.1506 66.2425 35.4463C66.1827 35.742 66.0351 36.0136 65.8183 36.2268C65.6015 36.44 65.3252 36.5851 65.0245 36.6439C64.7238 36.7027 64.4121 36.6724 64.1289 36.5569C63.8456 36.4414 63.6036 36.2459 63.4334 35.9952C63.2632 35.7444 63.1725 35.4496 63.1727 35.1481C63.174 34.7449 63.3376 34.3585 63.6278 34.0736C63.918 33.7886 64.3112 33.6283 64.7213 33.6277V33.6254Z" fill="#333333"/>
<path d="M60.5218 44.0835V42.0332C60.5236 41.4882 60.7447 40.9662 61.1367 40.5809C61.5286 40.1957 62.0597 39.9786 62.6139 39.9771H66.8275C67.2701 39.9765 67.7014 40.1144 68.059 40.3708C68.5446 40.2072 69.0543 40.1233 69.5677 40.1226H69.5947C69.283 39.6854 68.8688 39.3285 68.3871 39.0821C67.9054 38.8358 67.3704 38.7072 66.8275 38.7072H62.6139C61.717 38.7082 60.8571 39.0588 60.2228 39.6823C59.5885 40.3058 59.2316 41.1513 59.2303 42.0332V45.351H64.9432C64.8772 44.9302 64.8772 44.502 64.9432 44.0811L60.5218 44.0835Z" fill="#333333"/>
<path d="M72.302 42.0286C71.7612 41.4967 71.0721 41.1344 70.3219 40.9876C69.5717 40.8409 68.7941 40.9161 68.0874 41.2039C67.3807 41.4917 66.7767 41.9791 66.3517 42.6045C65.9268 43.2299 65.6999 43.9651 65.6999 44.7172C65.6999 45.4694 65.9268 46.2046 66.3517 46.83C66.7767 47.4554 67.3807 47.9428 68.0874 48.2306C68.7941 48.5184 69.5717 48.5936 70.3219 48.4468C71.0721 48.3001 71.7612 47.9378 72.302 47.4059C73.0271 46.6928 73.4344 45.7257 73.4344 44.7172C73.4344 43.7088 73.0271 42.7417 72.302 42.0286ZM71.6621 46.0691L70.9366 46.7825L69.5677 45.4307L68.1988 46.7768L67.4732 46.0633L68.8421 44.7172L67.4732 43.3712L68.1988 42.6577L69.5677 44.0038L70.9366 42.6577L71.6621 43.3712L70.2932 44.7172L71.6621 46.0691Z" fill="#333333"/>
</g>
</g>
<path d="M558.934 45.589L424 45.3855V0H558.934C561.716 0 564 2.34051 564 5.18982V40.3992C564 43.2485 561.716 45.589 558.934 45.589Z" fill="white"/>
</svg>

<svg width="564" height="52" fill="none" xmlns="http://www.w3.org/2000/svg"><path d="M425.397 45.284H37.317c-.5 0-1 .203-1.4.509l-6.503 5.698c-.4.306-.9.509-1.401.509h-9.504c-.5 0-1-.203-1.401-.509l-6.503-5.698c-.4-.306-.9-.51-1.4-.51H4.501C2.001 45.284 0 43.249 0 40.706V4.579C0 2.035 2 0 4.502 0h4.702c.5 0 1 .204 1.4.509l6.504 5.698c.4.306.9.51 1.4.51h9.505c.5 0 1-.204 1.4-.51L35.918.51c.4-.305.9-.509 1.4-.509H432v8.344c0 .51-.2 1.018-.5 1.425l-5.603 6.615c-.3.407-.5.915-.5 1.424v9.668c0 .508.2 1.017.5 1.424l5.603 6.615c.3.407.5.916.5 1.424v8.141l-6.603.204Z" fill="#fff"/><mask id="a" style="mask-type:alpha" maskUnits="userSpaceOnUse" x="0" y="0" width="432" height="52"><path d="M425.397 45.284H37.317c-.5 0-1 .203-1.4.509l-6.503 5.698c-.4.306-.9.509-1.401.509h-9.504c-.5 0-1-.203-1.401-.509l-6.503-5.698c-.4-.306-.9-.51-1.4-.51H4.501C2.001 45.284 0 43.249 0 40.706V4.579C0 2.035 2 0 4.502 0h4.702c.5 0 1 .204 1.4.509l6.504 5.698c.4.306.9.51 1.4.51h9.505c.5 0 1-.204 1.4-.51L35.918.51c.4-.305.9-.509 1.4-.509H432v8.344c0 .51-.2 1.018-.5 1.425l-5.603 6.615c-.3.407-.5.915-.5 1.424v9.668c0 .508.2 1.017.5 1.424l5.603 6.615c.3.407.5.916.5 1.424v8.141l-6.603.204Z" fill="#fff"/></mask><g mask="url(#a)"><path d="M-26 0h95.16l28.6 52H-26V0Z" fill="#E6E9E9"/><g opacity=".32" fill="#333"><path d="M12.93 1.295a2.645 2.645 0 1 0-3.74 3.74 2.645 2.645 0 0 0 3.74-3.74ZM12.49 4.1l-.495.496-.937-.936-.936.936-.496-.496.936-.936-.936-.936.496-.496.936.936.937-.936.495.496-.936.936.936.936Z"/><path d="M8.628 5.596a3.43 3.43 0 0 1-1.005-2.431H2.067A1.587 1.587 0 0 0 .48 4.752v7.406a1.587 1.587 0 0 0 1.587 1.587h7.405a1.587 1.587 0 0 0 1.587-1.587V6.6a3.431 3.431 0 0 1-2.431-1.005Zm-4.71-.957a.926.926 0 1 1 0 1.852.926.926 0 0 1 0-1.852ZM2.067 7.972a1.11 1.11 0 0 1 1.11-1.11H4.66a1.11 1.11 0 0 1 1.11 1.11v.37H2.068v-.37Zm7.405 3.967H2.067v-.66h7.405v.66Zm0-1.587H2.067v-.67h7.405v.67Z"/></g><g opacity=".32" fill="#333"><path d="M43.56 17.8v-7.68H19.421c-1.517 0-2.97.607-4.043 1.687a5.782 5.782 0 0 0-1.675 4.073v26.88c0 1.528.603 2.993 1.675 4.073a5.695 5.695 0 0 0 4.043 1.687h26.68c1.516 0 2.97-.607 4.042-1.687a5.782 5.782 0 0 0 1.674-4.073V21.64H47.37a3.8 3.8 0 0 1-2.694-1.126 3.858 3.858 0 0 1-1.118-2.714Zm-17.47-2.331c.66 0 1.305.197 1.853.566.549.37.976.894 1.229 1.508a3.383 3.383 0 0 1-.723 3.662 3.32 3.32 0 0 1-1.708.919 3.311 3.311 0 0 1-1.927-.191 3.34 3.34 0 0 1-1.496-1.238 3.378 3.378 0 0 1 .414-4.242 3.323 3.323 0 0 1 2.358-.984Zm-6.67 12.099a4.053 4.053 0 0 1 1.172-2.852 3.998 3.998 0 0 1 2.83-1.18h5.337c1.06 0 2.079.425 2.83 1.181a4.047 4.047 0 0 1 1.171 2.851v1.34H19.42v-1.34Zm26.68 14.4H19.42v-2.4H46.1v2.4Zm0-5.76H19.42v-2.43H46.1v2.43Z"/><path d="M45.465 17.587c.002.566.226 1.108.623 1.508.397.4.936.624 1.497.625h8.467c.561 0 1.1-.226 1.497-.625.397-.4.621-.942.623-1.508V4.785H45.465v12.802Zm2.12-10.67h8.467v10.67h-8.467V6.917Zm7.939-5.331L54.466.52h-5.295l-1.059 1.066h-3.705V3.72H59.23V1.586h-3.706Z"/><path d="M51.12 8.368h-1.973v7.77h1.974v-7.77Zm3.37 0h-1.974v7.77h1.974v-7.77Z"/></g><g opacity=".32" fill="#333"><path d="M64.721 37.94c.562 0 1.11-.164 1.577-.47a2.813 2.813 0 0 0 1.046-1.254c.215-.51.271-1.071.162-1.613a2.777 2.777 0 0 0-.777-1.429 2.854 2.854 0 0 0-1.454-.764 2.883 2.883 0 0 0-1.64.16 2.829 2.829 0 0 0-1.274 1.027 2.758 2.758 0 0 0-.478 1.551c0 .74.3 1.45.832 1.973a2.866 2.866 0 0 0 2.006.819Zm0-4.315c.307 0 .607.09.862.257s.454.405.571.684a1.501 1.501 0 0 1-.336 1.66 1.574 1.574 0 0 1-1.69.33 1.545 1.545 0 0 1-.695-.56 1.513 1.513 0 0 1-.26-.848 1.51 1.51 0 0 1 .455-1.074 1.56 1.56 0 0 1 1.093-.446v-.003Zm-4.199 10.459v-2.05a2.046 2.046 0 0 1 .615-1.453 2.116 2.116 0 0 1 1.477-.604h4.214c.442 0 .873.137 1.231.394a4.747 4.747 0 0 1 1.509-.248h.027a3.363 3.363 0 0 0-1.208-1.04 3.427 3.427 0 0 0-1.56-.376h-4.213a3.417 3.417 0 0 0-2.391.975 3.303 3.303 0 0 0-.993 2.351v3.318h5.713a4.097 4.097 0 0 1 0-1.27l-4.421.002Z"/><path d="M72.302 42.029a3.888 3.888 0 0 0-1.98-1.041 3.929 3.929 0 0 0-2.235.216 3.854 3.854 0 0 0-1.735 1.4 3.758 3.758 0 0 0-.652 2.113c0 .752.227 1.488.652 2.113a3.854 3.854 0 0 0 1.735 1.4 3.928 3.928 0 0 0 2.235.217 3.887 3.887 0 0 0 1.98-1.041 3.77 3.77 0 0 0 1.132-2.689 3.77 3.77 0 0 0-1.132-2.688Zm-.64 4.04-.725.713-1.37-1.351-1.368 1.346-.726-.714 1.37-1.346-1.37-1.346.726-.713 1.369 1.346 1.369-1.346.725.713-1.369 1.346 1.37 1.352Z"/></g></g><path d="M558.934 45.589 424 45.386V0h134.934C561.716 0 564 2.34 564 5.19V40.4c0 2.849-2.284 5.189-5.066 5.189Z" fill="#fff"/></svg>
